X:1
T:Title
%%score { ( 1 4 ) | ( 2 3 ) }
L:1/8
Q:1/4=100
M:6/8
K:Eb
V:1 treble nm="Grand Piano"
V:4 treble 
V:2 bass 
V:3 bass 
V:1
 G2 G [GB]2 [GB] | [Ac][GB][_G=A] [=GB]3 | [Ge]2 [GB] BAG | [Ec]2 [CEF] [B,DF]3 | G>FG A3 | %5
w: George~C.~Stebbins * * *|||||
 B>=AB c3 | c2 c B2 [Ge] | [B,EG]2 [A,DF] [G,E]3 | [EGB]2 [EGc] [EGB][EG][Ge] | .A3 z3 | %10
w: |||||
 [B,DA]2 [B,DB] [DFA][DF][DAc] | B6 | z3 c3 | d>cd e3 | e2 c B [Ge]2 | [EG] [DF]2 E3 |] %16
w: ||||||
V:2
 [E,B,E]2 [E,B,E] [E,E]2 [E,E] | [E,E]2 [E,E] [E,E]3 | z3 .[G,E]3 | [A,,A,]2 =A,, B,,3 | %4
 [E,B,E]>[E,=A,E][E,B,E] [F,B,D]3 | [G,B,E]>[_G,CE][=G,B,E] [A,E]3 | [A,E]2 [A,CE] [G,E]2 [E,B,] | %7
 B,,2 B,, E,3 | E,2 E, z B,[E,B,] | [F,B,]2 B,, F,3 | B,,2 B,, z B,B,, | E,2 B,, E,3 | %12
 [E,E]>[E,E][E,E][K:treble] .[A,EA]3 | [G,=B,F]>[G,CE][G,B,F] [CG]3 | %14
 [A,CA]2[K:bass] [A,E] [G,B,E] [E,B,]2 | [B,,B,] [B,,A,]2 [E,G,]3 |] %16
V:3
 x6 | x6 | [E,B,]2 [E,E] B,-[F,B,D][E,B,E] | x6 | x6 | x6 | x6 | x6 | z3 .E,3 | x6 | z3 .B,,3 | %11
 x6 | x3[K:treble] x3 | x6 | x2[K:bass] x4 | x6 |] %16
V:4
 x6 | x6 | x6 | x6 | x6 | x6 | x6 | x6 | x6 | d2- [A,Fd-] [B,Ad]3 | x6 | [EG]2 [G,E] [B,G]3 | %12
 [GB]>[_G=A][=GB] z2 C | x6 | x6 | x6 |] %16

